X: 2013
T: Garthland's    Strathspey
%R: strathspey
B: Niel Gow & Sons "A Second Collection of Strathspey Reels, etc." v.2 p.1 #3
Z: 2022 John Chambers <jc:trillian.mit.edu>
M: C
L: 1/8
K: G
% - - - - - - - - - -
V: 1 staves=2
D |\
TG2BG B<dg2 | G2 {c}BA/G/ FAAB |\
TG2BG B<dg2 | c>A {c}BA/G/ DGG :|\
d/c/ |\
Bddg {b}ag/f/ Tg2 | B<Gd>G FA- Ad/c/ |
Bddg {b}ag/f/ Tg2 | cA de/c/ BG Gd/c/ ||\
Bddg {b}ag/f/ g>c | B<Gd>G FA- AB/c/ |\
{e}d>cBA .B(GT.F>E) | FD de/c/ BGG |]
% - - - - - - - - - -
% Voice 2 preserves the staff layout in the book.
V: 2 clef=bass middle=d
z | g2g2 g2b2 | g2G2 d2d'2 | g2g2 g2b2 | c'2d'2 g2g :| z | g2g2 d2g2 | g2G2 d2d2 |
g2g2 d2g2 | c'2d'2 g2gz || g2g2 d2g2 | g2G2 d2d'2 | g2g2 g2g2 | d2d2 g2g |]


